static/img/drf-logo-black.svg

<svg height="44" viewBox="0 0 293 44" width="293" xmlns="http://www.w3.org/2000/svg"><g fill="none" fill-rule="evenodd" transform="translate(2 2)"><g fill="#000" fill-rule="nonzero"><path d="m59.972 9.588c6.056 0 10.492 4.527 10.492 10.706 0 6.178-4.436 10.706-10.492 10.706h-7.769v-21.412zm0 4.282h-3.487v12.847h3.487c3.671 0 6.21-2.722 6.21-6.423s-2.539-6.424-6.21-6.424z"/><path d="m80.222 15.339c4.711 0 8.228 3.242 8.228 8.013 0 4.773-3.517 8.015-8.228 8.015s-8.228-3.242-8.228-8.015c0-4.771 3.517-8.013 8.228-8.013m0 3.946c-2.294 0-4.068 1.62-4.068 4.067 0 2.448 1.774 4.068 4.068 4.068s4.068-1.62 4.068-4.068c0-2.447-1.774-4.067-4.068-4.067"/><path d="m98.958 15.338c.551 0 1.831.304 2.32.426v4.344c-.55-.183-2.014-.457-2.657-.457-2.66 0-3.853 1.499-3.853 4.435v6.913h-4.038v-15.294h3.885v2.508c.825-1.774 2.202-2.875 4.343-2.875"/><path d="m122.209 15.338c3.579 0 5.781 2.386 5.781 6.362v9.299h-4.068v-8.473c0-2.171-.948-3.304-2.753-3.304-2.478 0-3.365 1.867-3.365 4.467v7.31h-4.037v-8.473c0-2.171-.949-3.304-2.784-3.304-2.447 0-3.303 1.867-3.303 4.467v7.31h-4.038v-15.294h3.915v2.233c.918-1.469 2.386-2.6 4.772-2.6 2.264 0 3.885.978 4.741 2.845.918-1.652 2.6-2.845 5.139-2.845"/><path d="m164.252 14.839c4.711 0 8.228 3.242 8.228 8.013 0 4.773-3.517 8.015-8.228 8.015-4.712 0-8.229-3.242-8.229-8.015 0-4.771 3.517-8.013 8.229-8.013m0 3.946c-2.295 0-4.068 1.62-4.068 4.067 0 2.448 1.773 4.068 4.068 4.068 2.294 0 4.067-1.62 4.067-4.068 0-2.447-1.773-4.067-4.067-4.067"/><path d="m182.358 14.839c4.711 0 8.228 3.242 8.228 8.013 0 4.773-3.517 8.015-8.228 8.015-4.712 0-8.229-3.242-8.229-8.015.001-4.771 3.517-8.013 8.229-8.013m0 3.946c-2.294 0-4.068 1.62-4.068 4.067 0 2.448 1.774 4.068 4.068 4.068s4.067-1.62 4.067-4.068c.001-2.447-1.773-4.067-4.067-4.067"/><path d="m211.752 14.838c3.579 0 5.781 2.386 5.781 6.362v9.299h-4.068v-8.473c0-2.171-.948-3.304-2.753-3.304-2.479 0-3.365 1.867-3.365 4.467v7.31h-4.037v-8.473c0-2.171-.949-3.304-2.784-3.304-2.446 0-3.303 1.867-3.303 4.467v7.31h-4.038v-15.294h3.915v2.233c.918-1.469 2.386-2.6 4.772-2.6 2.264 0 3.885.978 4.74 2.845.919-1.652 2.601-2.845 5.14-2.845"/><path d="m238.649 9.087v4.282h-10.544v4.283h10.544v4.283h-10.544v8.565h-4.281v-21.413z"/><path d="m254.546 15.205v15.295h-3.915v-2.325c-1.04 1.561-2.57 2.692-4.864 2.692-3.548 0-5.292-2.386-5.292-6.148v-9.513h4.13v8.504c0 2.172.795 3.273 2.569 3.273 2.264 0 3.304-1.836 3.304-4.467v-7.311z"/><path d="m266.235 14.838c3.579 0 5.414 2.325 5.414 6.179v9.481h-4.129v-8.473c0-2.295-1.071-3.304-2.783-3.304-2.355 0-3.335 1.744-3.335 4.467v7.31h-4.037v-15.294h3.915v2.203c1.072-1.499 2.722-2.569 4.955-2.569"/><path d="m290.079 9.088v21.412h-4.037v-2.141c-1.101 1.559-2.845 2.539-5.077 2.539-3.794 0-6.975-2.876-6.975-8.046 0-5.168 3.181-8.045 6.914-8.045 2.385 0 4.098 1.133 5.138 2.602v-8.321zm-11.929 13.764c0 2.478 1.713 4.099 4.007 4.099 2.264 0 4.007-1.59 4.007-4.099 0-2.539-1.743-4.098-4.007-4.098-2.294 0-4.007 1.621-4.007 4.098z"/><path d="m155.397 27.733c-2.344.836-4.319-.599-5.553-2.968l-.944-1.812c1.98-1.324 3.2-3.568 3.2-6.241l-.017-.014c0-4.316-3.175-7.522-7.614-7.522h-.13-9.302v21.578h4.315v-6.504h4.964l.169-.016c.101 0 .198-.011.297-.014l1.448 2.778c2.181 4.188 6.859 5.667 11.148 3.579zm-7.63-11.004c0 1.849-1.233 3.206-3.298 3.206h-5.115v-6.443h5.117c2.066 0 3.299 1.357 3.299 3.206z"/><path d="m10.022 14.817c3.078 0 5.332 2.301 5.332 5.441 0 3.139-2.254 5.44-5.332 5.44h-3.948v-10.881zm0 2.177h-1.772v6.528h1.772c1.865 0 3.155-1.383 3.155-3.263.001-1.882-1.289-3.265-3.155-3.265z"/><path d="m33.806 14.945v2.176h-4.85v2.176h4.85v2.176h-4.85v4.353h-2.176v-10.881z"/><path d="m26.797 25.838c.319-.088.637-.209.951-.372l-.869-1.483c-.028.013-.055.022-.082.034z"/><path d="m25.897 24.208c-.862-.027-1.584-.674-2.074-1.615l-.476-.914c.999-.667 1.614-1.799 1.614-3.146l-.008-.008c0-2.176-1.601-3.792-3.84-3.792h-.066-4.69v10.88h2.176v-3.279h2.503l.085-.009c.051 0 .1-.005.15-.007l.73 1.401c.81 1.555 2.303 2.367 3.896 2.269zm-3.122-5.667c0 .932-.622 1.616-1.663 1.616h-2.579v-3.248h2.58c1.042 0 1.663.684 1.663 1.616z"/></g><circle cx="19.807" cy="20.135" r="19.667" stroke="#000" stroke-width="3"/></g></svg>

<?xml version="1.0" encoding="UTF-8"?>
<svg width="293px" height="44px" viewBox="0 0 293 44" version="1.1" xmlns="http://www.w3.org/2000/svg" xmlns:xlink="http://www.w3.org/1999/xlink">
    <!-- Generator: Sketch 42 (36781) - http://www.bohemiancoding.com/sketch -->
    <title>Group 2</title>
    <desc>Created with Sketch.</desc>
    <defs></defs>
    <g id="Page-1" stroke="none" stroke-width="1" fill="none" fill-rule="evenodd">
        <g id="Group-2" transform="translate(2.000000, 2.000000)">
            <path d="M59.972,9.588 C66.028,9.588 70.464,14.115 70.464,20.294 C70.464,26.472 66.028,31 59.972,31 L52.203,31 L52.203,9.588 L59.972,9.588 Z M59.972,13.87 L56.485,13.87 L56.485,26.717 L59.972,26.717 C63.643,26.717 66.182,23.995 66.182,20.294 C66.182,16.593 63.643,13.87 59.972,13.87 L59.972,13.87 Z" id="Shape" fill="#000000" fill-rule="nonzero"></path>
            <path d="M80.222,15.339 C84.933,15.339 88.45,18.581 88.45,23.352 C88.45,28.125 84.933,31.367 80.222,31.367 C75.511,31.367 71.994,28.125 71.994,23.352 C71.994,18.581 75.511,15.339 80.222,15.339 M80.222,19.285 C77.928,19.285 76.154,20.905 76.154,23.352 C76.154,25.8 77.928,27.42 80.222,27.42 C82.516,27.42 84.29,25.8 84.29,23.352 C84.29,20.905 82.516,19.285 80.222,19.285" id="Shape" fill="#000000" fill-rule="nonzero"></path>
            <path d="M98.958,15.338 C99.509,15.338 100.789,15.642 101.278,15.764 L101.278,20.108 C100.728,19.925 99.264,19.651 98.621,19.651 C95.961,19.651 94.768,21.15 94.768,24.086 L94.768,30.999 L90.73,30.999 L90.73,15.705 L94.615,15.705 L94.615,18.213 C95.44,16.439 96.817,15.338 98.958,15.338" id="Shape" fill="#000000" fill-rule="nonzero"></path>
            <path d="M122.209,15.338 C125.788,15.338 127.99,17.724 127.99,21.7 L127.99,30.999 L123.922,30.999 L123.922,22.526 C123.922,20.355 122.974,19.222 121.169,19.222 C118.691,19.222 117.804,21.089 117.804,23.689 L117.804,30.999 L113.767,30.999 L113.767,22.526 C113.767,20.355 112.818,19.222 110.983,19.222 C108.536,19.222 107.68,21.089 107.68,23.689 L107.68,30.999 L103.642,30.999 L103.642,15.705 L107.557,15.705 L107.557,17.938 C108.475,16.469 109.943,15.338 112.329,15.338 C114.593,15.338 116.214,16.316 117.07,18.183 C117.988,16.531 119.67,15.338 122.209,15.338" id="Shape" fill="#000000" fill-rule="nonzero"></path>
            <path d="M164.252,14.839 C168.963,14.839 172.48,18.081 172.48,22.852 C172.48,27.625 168.963,30.867 164.252,30.867 C159.54,30.867 156.023,27.625 156.023,22.852 C156.023,18.081 159.54,14.839 164.252,14.839 M164.252,18.785 C161.957,18.785 160.184,20.405 160.184,22.852 C160.184,25.3 161.957,26.92 164.252,26.92 C166.546,26.92 168.319,25.3 168.319,22.852 C168.319,20.405 166.546,18.785 164.252,18.785" id="Shape" fill="#000000" fill-rule="nonzero"></path>
            <path d="M182.358,14.839 C187.069,14.839 190.586,18.081 190.586,22.852 C190.586,27.625 187.069,30.867 182.358,30.867 C177.646,30.867 174.129,27.625 174.129,22.852 C174.13,18.081 177.646,14.839 182.358,14.839 M182.358,18.785 C180.064,18.785 178.29,20.405 178.29,22.852 C178.29,25.3 180.064,26.92 182.358,26.92 C184.652,26.92 186.425,25.3 186.425,22.852 C186.426,20.405 184.652,18.785 182.358,18.785" id="Shape" fill="#000000" fill-rule="nonzero"></path>
            <path d="M211.752,14.838 C215.331,14.838 217.533,17.224 217.533,21.2 L217.533,30.499 L213.465,30.499 L213.465,22.026 C213.465,19.855 212.517,18.722 210.712,18.722 C208.233,18.722 207.347,20.589 207.347,23.189 L207.347,30.499 L203.31,30.499 L203.31,22.026 C203.31,19.855 202.361,18.722 200.526,18.722 C198.08,18.722 197.223,20.589 197.223,23.189 L197.223,30.499 L193.185,30.499 L193.185,15.205 L197.1,15.205 L197.1,17.438 C198.018,15.969 199.486,14.838 201.872,14.838 C204.136,14.838 205.757,15.816 206.612,17.683 C207.531,16.031 209.213,14.838 211.752,14.838" id="Shape" fill="#000000" fill-rule="nonzero"></path>
            <polygon id="Shape" fill="#000000" fill-rule="nonzero" points="238.649 9.087 238.649 13.369 228.105 13.369 228.105 17.652 238.649 17.652 238.649 21.935 228.105 21.935 228.105 30.5 223.824 30.5 223.824 9.087"></polygon>
            <path d="M254.546,15.205 L254.546,30.5 L250.631,30.5 L250.631,28.175 C249.591,29.736 248.061,30.867 245.767,30.867 C242.219,30.867 240.475,28.481 240.475,24.719 L240.475,15.206 L244.605,15.206 L244.605,23.71 C244.605,25.882 245.4,26.983 247.174,26.983 C249.438,26.983 250.478,25.147 250.478,22.516 L250.478,15.205 L254.546,15.205 L254.546,15.205 Z" id="Shape" fill="#000000" fill-rule="nonzero"></path>
            <path d="M266.235,14.838 C269.814,14.838 271.649,17.163 271.649,21.017 L271.649,30.498 L267.52,30.498 L267.52,22.025 C267.52,19.73 266.449,18.721 264.737,18.721 C262.382,18.721 261.402,20.465 261.402,23.188 L261.402,30.498 L257.365,30.498 L257.365,15.204 L261.28,15.204 L261.28,17.407 C262.352,15.908 264.002,14.838 266.235,14.838" id="Shape" fill="#000000" fill-rule="nonzero"></path>
            <path d="M290.079,9.088 L290.079,30.5 L286.042,30.5 L286.042,28.359 C284.941,29.918 283.197,30.898 280.965,30.898 C277.171,30.898 273.99,28.022 273.99,22.852 C273.99,17.684 277.171,14.807 280.904,14.807 C283.289,14.807 285.002,15.94 286.042,17.409 L286.042,9.088 L290.079,9.088 Z M278.15,22.852 C278.15,25.33 279.863,26.951 282.157,26.951 C284.421,26.951 286.164,25.361 286.164,22.852 C286.164,20.313 284.421,18.754 282.157,18.754 C279.863,18.754 278.15,20.375 278.15,22.852 L278.15,22.852 Z" id="Shape" fill="#000000" fill-rule="nonzero"></path>
            <path d="M155.397,27.733 C153.053,28.569 151.078,27.134 149.844,24.765 L148.9,22.953 C150.88,21.629 152.1,19.385 152.1,16.712 L152.083,16.698 C152.083,12.382 148.908,9.176 144.469,9.176 L144.339,9.176 L135.037,9.176 L135.037,30.754 L139.352,30.754 L139.352,24.25 L144.316,24.25 L144.485,24.234 C144.586,24.234 144.683,24.223 144.782,24.22 L146.23,26.998 C148.411,31.186 153.089,32.665 157.378,30.577 L155.397,27.733 Z M147.767,16.729 C147.767,18.578 146.534,19.935 144.469,19.935 L139.354,19.935 L139.354,13.492 L144.471,13.492 C146.537,13.492 147.77,14.849 147.77,16.698 L147.767,16.729 Z" id="Shape" fill="#000000" fill-rule="nonzero"></path>
            <path d="M10.022,14.817 C13.1,14.817 15.354,17.118 15.354,20.258 C15.354,23.397 13.1,25.698 10.022,25.698 L6.074,25.698 L6.074,14.817 L10.022,14.817 L10.022,14.817 Z M10.022,16.994 L8.25,16.994 L8.25,23.522 L10.022,23.522 C11.887,23.522 13.177,22.139 13.177,20.259 C13.178,18.377 11.888,16.994 10.022,16.994 L10.022,16.994 Z" id="Shape" fill="#000000" fill-rule="nonzero"></path>
            <polygon id="Shape" fill="#000000" fill-rule="nonzero" points="33.806 14.945 33.806 17.121 28.956 17.121 28.956 19.297 33.806 19.297 33.806 21.473 28.956 21.473 28.956 25.826 26.78 25.826 26.78 14.945"></polygon>
            <path d="M26.797,25.838 C27.116,25.75 27.434,25.629 27.748,25.466 L26.879,23.983 C26.851,23.996 26.824,24.005 26.797,24.017 L26.797,25.838 Z" id="Shape" fill="#000000" fill-rule="nonzero"></path>
            <path d="M25.897,24.208 C25.035,24.181 24.313,23.534 23.823,22.593 L23.347,21.679 C24.346,21.012 24.961,19.88 24.961,18.533 L24.953,18.525 C24.953,16.349 23.352,14.733 21.113,14.733 L21.047,14.733 L16.357,14.733 L16.357,25.613 L18.533,25.613 L18.533,22.334 L21.036,22.334 L21.121,22.325 C21.172,22.325 21.221,22.32 21.271,22.318 L22.001,23.719 C22.811,25.274 24.304,26.086 25.897,25.988 L25.897,24.208 Z M22.775,18.541 C22.775,19.473 22.153,20.157 21.112,20.157 L18.533,20.157 L18.533,16.909 L21.113,16.909 C22.155,16.909 22.776,17.593 22.776,18.525 L22.775,18.541 Z" id="Shape" fill="#000000" fill-rule="nonzero"></path>
            <circle id="Oval" stroke="#000000" stroke-width="3" cx="19.807" cy="20.135" r="19.667"></circle>
        </g>
    </g>
</svg>
